X: 1
T: The Green Fields Of Rossbeigh
C: Trad.
R: reel
M: 4/4
L: 1/8
K: Edor
|:"Em"BE(3EDE BAFB|"D"ABde fded|"Em"BE(3EDE BAFA|(3BcB AF E2EA|
"Em"BE(3EDE BAFB|"D"ABde fded|"Em"BE(3EDE BAFA|BFAF E2FA:|
"G (Em)"(3Bcd ef g2fe|dB(3BAB dBAd|(3Bcd ef gfge|dBAF "Em"E2ef|
"G"gfga gfeg|"D"fefg fedB|ABde fgfe|dBAF "Em"E2FA:| 